X:1
T:Hungarian Dance No.5
T:Johannes Brahms
%%score 1 2
L:1/8
Q:1/4=180
M:4/4
K:A
V:1 alto nm="Viola" snm="Vla."
V:2 bass nm="Piano" snm="Pno."
V:1
"^Presto" vC6 F2 | A6 F2 | =F6 (^FG) | F8 | D6 (EF) | C8 | (B,A,)(A,G,) G,3 C | F,8 | C6 (FA) | %9
 c6 A2 | G6 (AB) | A8 | (defd) (cdec) | (BcdB) (ABcA) | (BA)(AG) G3 c | F8 :| c4 c4 | d6 c2 | %18
 z2 B2 z2 (^AB) | (cB^Ac) B4 | B4 B4 | c6 B2 | z2 A2 z2 (GA) | (BAGB) A2 (GF) | G4 G4 | %25
 B2 A2 z2 G2 | z2 F2 z2 (=F^F | GF=FG) ^F4 | c6 C2 | ^D4 =F4 | F2 F2 z2 (=F^F | GF=FG) ^F4 | %32
 F4 z4 | =F4 z4 | F6 z2 |] %35
V:2
[K:D]!f!!f! F,,2 [A,,C,]2 [A,,C,]2 [A,,C,]2 | F,,2 [A,,C,]2 [A,,C,]2 [A,,C,]2 | %2
 F,,2 [B,,D,]2 [B,,D,]2 [B,,D,]2 | F,,2 [A,,C,]2 [A,,C,]2 [A,,C,]2 | %4
 F,,2 [B,,D,]2 [B,,D,]2 [B,,D,]2 | F,,2 [A,,C,]2 [A,,C,]2 [A,,C,]2 | %6
 =F,,2 [B,,C,]2 [B,,C,]2 [B,,C,]2 | F,,2 [A,,C,]2 [A,,C,]2 [A,,C,]2 | %8
 F,,2 [A,,C,]2 [A,,C,]2 [A,,C,]2 | F,,2 [A,,C,]2 [A,,C,]2 [A,,C,]2 | %10
 F,,2 [B,,D,]2 [B,,D,]2 [B,,D,]2 | F,,2 [A,,C,]2 [A,,C,]2 [A,,C,]2 | [B,,D,]2 [B,,D,]2 [A,,C,]4 | %13
 [^G,,B,,]2 [G,,B,,]2 [F,,A,,]4 | =F,,2 [B,,C,]2 [B,,C,]2 [B,,C,]2 | F,,2 [A,,C,]2 F,,4 :| %16
 ^A,,2 [E,F,]2 [E,F,]2 [E,F,]2 | C,2 [E,F,]2 [E,F,]2 [E,F,]2 | B,,2 [D,F,]2 [D,F,]2 [D,F,]2 | %19
 ^A,,2 [E,F,]2 B,,2 [D,F,]2 | ^G,,2 [D,E,]2 [D,E,]2 [D,E,]2 | B,,2 [D,E,]2 [D,E,]2 [D,E,]2 | %22
 A,,2 [C,E,]2 [C,E,]2 [C,E,]2 | ^G,,2 [D,E,]2 [A,,C,E,]4 | C,2 [=F,B,]2 B,2 F,2 | %25
 [D,F,]2 [F,A,]2 [F,A,]2 B,,2 | F,2 [D,F,]2 F,2 D,2 | [B,,C,]2 ^G,2 [F,A,]4 | [C,^G,]6 C,2 | %29
 ^D,4 =F,4 | F,2 [A,C]2 [A,C]2 [A,C]2 | C,2 [^G,B,]2 [F,A,]4 | B,,4 z4 | C,4 z4 | F,,6 z2 |] %35

